X: 40
T:Candlestick Branle
T:Torch Branle
M:C|
L:1/4
R:Branle
B:Thoinot Arbeau : Orchesographie, 1589
Z:Steve Mansfield March 2001
K:GDor
GA BB | A3 A | GB AG | ^F2 F2 |
GA BB | A3 c | B A/G/ AA | G2 G2 ::
E2 ^F2 | G2 G2 :|

